Newaita/actions/22/distribute-vertical-center.svg

<svg height="22" viewBox="0 0 22 22" width="22" xmlns="http://www.w3.org/2000/svg"><g fill="#424242"><path d="m20.011719 4.71875v.910156c0 .25-.203125.457032-.457031.457032h-4.546876c-.25 0-.453124-.207032-.453124-.457032v-.910156c0-.25.203124-.453125.453124-.453125h4.546876c.253906 0 .457031.203125.457031.453125zm0 0"/><path d="m15.464844 2.902344c0-.503906-.40625-.910156-.910156-.910156h-4.550782c-.503906 0-.90625.40625-.90625.910156v4.546875c0 .503906.402344.910156.90625.910156h4.550782c.503906 0 .910156-.40625.910156-.910156zm-1.820313 1.363281v1.820313c0 .25-.203125.453124-.457031.453124h-1.816406c-.253906 0-.457032-.203124-.457032-.453124v-1.820313c0-.253906.203126-.457031.457032-.457031h1.816406c.253906 0 .457031.203125.457031.457031zm0 0"/><path d="m10.003906 4.71875v.910156c0 .25-.203125.457032-.453125.457032h-7.277343c-.25 0-.453126-.207032-.453126-.457032v-.910156c0-.25.203126-.453125.453126-.453125h7.277343c.25 0 .453125.203125.453125.453125zm0 0"/><path d="m20.011719 16.542969v.910156c0 .253906-.203125.457031-.457031.457031h-4.546876c-.25 0-.453124-.203125-.453124-.457031v-.910156c0-.25.203124-.453125.453124-.453125h4.546876c.253906 0 .457031.203125.457031.453125zm0 0"/><path d="m15.464844 14.726562c0-.503906-.40625-.910156-.910156-.910156h-7.734376c-.503906 0-.90625.40625-.90625.910156v4.546876c0 .503906.402344.910156.90625.910156h7.734376c.503906 0 .910156-.40625.910156-.910156zm-1.820313 1.363282v1.820312c0 .25-.203125.453125-.457031.453125h-5c-.253906 0-.457031-.203125-.457031-.453125v-1.820312c0-.253906.203125-.453125.457031-.453125h5c.253906 0 .457031.199219.457031.453125zm0 0"/><path d="m6.820312 16.542969v.910156c0 .253906-.203124.457031-.453124.457031h-4.09375c-.25 0-.453126-.203125-.453126-.457031v-.910156c0-.25.203126-.453125.453126-.453125h4.09375c.25 0 .453124.203125.453124.453125zm0 0"/><path d="m20.011719 10.175781h-3.640625l1.820312-2.273437zm0 0"/><path d="m20.011719 11.996094h-3.640625l1.820312 2.273437zm0 0"/></g></svg>

<svg xmlns="http://www.w3.org/2000/svg" xmlns:xlink="http://www.w3.org/1999/xlink" width="22px" height="22px" viewBox="0 0 22 22" version="1.1">
<g id="surface1">
     <defs>
  <style id="current-color-scheme" type="text/css">
   .ColorScheme-Text { color:#424242; } .ColorScheme-Highlight { color:#eeeeee; }
  </style>
 </defs>
<path style="fill:currentColor" class="ColorScheme-Text" d="M 20.011719 4.71875 L 20.011719 5.628906 C 20.011719 5.878906 19.808594 6.085938 19.554688 6.085938 L 15.007812 6.085938 C 14.757812 6.085938 14.554688 5.878906 14.554688 5.628906 L 14.554688 4.71875 C 14.554688 4.46875 14.757812 4.265625 15.007812 4.265625 L 19.554688 4.265625 C 19.808594 4.265625 20.011719 4.46875 20.011719 4.71875 Z M 20.011719 4.71875 "/>
     <defs>
  <style id="current-color-scheme" type="text/css">
   .ColorScheme-Text { color:#424242; } .ColorScheme-Highlight { color:#eeeeee; }
  </style>
 </defs>
<path style="fill:currentColor" class="ColorScheme-Text" d="M 15.464844 2.902344 C 15.464844 2.398438 15.058594 1.992188 14.554688 1.992188 L 10.003906 1.992188 C 9.5 1.992188 9.097656 2.398438 9.097656 2.902344 L 9.097656 7.449219 C 9.097656 7.953125 9.5 8.359375 10.003906 8.359375 L 14.554688 8.359375 C 15.058594 8.359375 15.464844 7.953125 15.464844 7.449219 Z M 13.644531 4.265625 L 13.644531 6.085938 C 13.644531 6.335938 13.441406 6.539062 13.1875 6.539062 L 11.371094 6.539062 C 11.117188 6.539062 10.914062 6.335938 10.914062 6.085938 L 10.914062 4.265625 C 10.914062 4.011719 11.117188 3.808594 11.371094 3.808594 L 13.1875 3.808594 C 13.441406 3.808594 13.644531 4.011719 13.644531 4.265625 Z M 13.644531 4.265625 "/>
     <defs>
  <style id="current-color-scheme" type="text/css">
   .ColorScheme-Text { color:#424242; } .ColorScheme-Highlight { color:#eeeeee; }
  </style>
 </defs>
<path style="fill:currentColor" class="ColorScheme-Text" d="M 10.003906 4.71875 L 10.003906 5.628906 C 10.003906 5.878906 9.800781 6.085938 9.550781 6.085938 L 2.273438 6.085938 C 2.023438 6.085938 1.820312 5.878906 1.820312 5.628906 L 1.820312 4.71875 C 1.820312 4.46875 2.023438 4.265625 2.273438 4.265625 L 9.550781 4.265625 C 9.800781 4.265625 10.003906 4.46875 10.003906 4.71875 Z M 10.003906 4.71875 "/>
     <defs>
  <style id="current-color-scheme" type="text/css">
   .ColorScheme-Text { color:#424242; } .ColorScheme-Highlight { color:#eeeeee; }
  </style>
 </defs>
<path style="fill:currentColor" class="ColorScheme-Text" d="M 20.011719 16.542969 L 20.011719 17.453125 C 20.011719 17.707031 19.808594 17.910156 19.554688 17.910156 L 15.007812 17.910156 C 14.757812 17.910156 14.554688 17.707031 14.554688 17.453125 L 14.554688 16.542969 C 14.554688 16.292969 14.757812 16.089844 15.007812 16.089844 L 19.554688 16.089844 C 19.808594 16.089844 20.011719 16.292969 20.011719 16.542969 Z M 20.011719 16.542969 "/>
     <defs>
  <style id="current-color-scheme" type="text/css">
   .ColorScheme-Text { color:#424242; } .ColorScheme-Highlight { color:#eeeeee; }
  </style>
 </defs>
<path style="fill:currentColor" class="ColorScheme-Text" d="M 15.464844 14.726562 C 15.464844 14.222656 15.058594 13.816406 14.554688 13.816406 L 6.820312 13.816406 C 6.316406 13.816406 5.914062 14.222656 5.914062 14.726562 L 5.914062 19.273438 C 5.914062 19.777344 6.316406 20.183594 6.820312 20.183594 L 14.554688 20.183594 C 15.058594 20.183594 15.464844 19.777344 15.464844 19.273438 Z M 13.644531 16.089844 L 13.644531 17.910156 C 13.644531 18.160156 13.441406 18.363281 13.1875 18.363281 L 8.1875 18.363281 C 7.933594 18.363281 7.730469 18.160156 7.730469 17.910156 L 7.730469 16.089844 C 7.730469 15.835938 7.933594 15.636719 8.1875 15.636719 L 13.1875 15.636719 C 13.441406 15.636719 13.644531 15.835938 13.644531 16.089844 Z M 13.644531 16.089844 "/>
     <defs>
  <style id="current-color-scheme" type="text/css">
   .ColorScheme-Text { color:#424242; } .ColorScheme-Highlight { color:#eeeeee; }
  </style>
 </defs>
<path style="fill:currentColor" class="ColorScheme-Text" d="M 6.820312 16.542969 L 6.820312 17.453125 C 6.820312 17.707031 6.617188 17.910156 6.367188 17.910156 L 2.273438 17.910156 C 2.023438 17.910156 1.820312 17.707031 1.820312 17.453125 L 1.820312 16.542969 C 1.820312 16.292969 2.023438 16.089844 2.273438 16.089844 L 6.367188 16.089844 C 6.617188 16.089844 6.820312 16.292969 6.820312 16.542969 Z M 6.820312 16.542969 "/>
     <defs>
  <style id="current-color-scheme" type="text/css">
   .ColorScheme-Text { color:#424242; } .ColorScheme-Highlight { color:#eeeeee; }
  </style>
 </defs>
<path style="fill:currentColor" class="ColorScheme-Text" d="M 20.011719 10.175781 L 16.371094 10.175781 L 18.191406 7.902344 Z M 20.011719 10.175781 "/>
     <defs>
  <style id="current-color-scheme" type="text/css">
   .ColorScheme-Text { color:#424242; } .ColorScheme-Highlight { color:#eeeeee; }
  </style>
 </defs>
<path style="fill:currentColor" class="ColorScheme-Text" d="M 20.011719 11.996094 L 16.371094 11.996094 L 18.191406 14.269531 Z M 20.011719 11.996094 "/>
</g>
</svg>
